X: 6829
T: Charlie Hunter
R: jig
M: 6/8
K: Dmajor
|:A|DFA GBd|Adf a2 g|fed Bcd|ecA GFE|
DF/G/A GB/c/d|Adf a2 g|f^ef g=ec|edc d2:|
|:f/g/|afd dcd|BGF G2 F|EGB efd|cA^G A2 a/=g/|
fdA FDF|GBd g2 g|f^ef g=ec|edc d2:|

